X: 1
T: Lad O'Beirne's
R: reel
M: 4/4
L: 1/8
K: Fmaj
d2 cA d2cA | GcAF G2FD | CF F/F/F CFAc | dcde fagf | 
d2 cA dAcA | GcAF G2FD | CFAF DFBd |1 cbag f2 fe :|2  cbag f3g | 
a2 gf afgf | defd cBAB | c2cd cdfa | g2ga g2fg | 
a2 gf afgf | defd cBAB | c2cd cdfa | g2ga f2fg |
a2 gf afgf | defd cBAB | c2cd cdfa | g2ga bagf |
a3g effe | dcfd cAFD | CFAF DFBd | cbag f2 fe ||